src/images/icon/icon_user.svg

<svg height="20" viewBox="0 0 20 20" width="20" xmlns="http://www.w3.org/2000/svg"><g fill="none" fill-rule="evenodd"><rect fill="#36435c" height="10" rx="4.285714" width="8.571429" x="5.714286" y=".714286"/><path d="m4.64285714 12.8571429h10.71428576c1.7752009 0 3.2142857 1.4390847 3.2142857 3.2142857v1.7857143c0 .7889782-.6395932 1.4285714-1.4285715 1.4285714h-14.28571424c-.78897822 0-1.42857143-.6395932-1.42857143-1.4285714v-1.7857143c0-1.775201 1.43908473-3.2142857 3.21428571-3.2142857z" fill="#b6c2cd"/></g></svg>

<?xml version="1.0" encoding="UTF-8"?>
<svg width="20px" height="20px" viewBox="0 0 20 20" version="1.1" xmlns="http://www.w3.org/2000/svg" xmlns:xlink="http://www.w3.org/1999/xlink">
    
    <g id="Dashboard" stroke="none" stroke-width="1" fill="none" fill-rule="evenodd">
        <g id="00-Menu-交互备份" transform="translate(-379.000000, -299.000000)">
            <g id="icon_close" transform="translate(379.000000, 299.000000)">
                <rect id="矩形" fill="#36435C" x="5.71428571" y="0.714285714" width="8.57142857" height="10" rx="4.28571429"></rect>
                <path d="M4.64285714,12.8571429 L15.3571429,12.8571429 C17.1323438,12.8571429 18.5714286,14.2962276 18.5714286,16.0714286 L18.5714286,17.8571429 C18.5714286,18.6461211 17.9318354,19.2857143 17.1428571,19.2857143 L2.85714286,19.2857143 C2.06816464,19.2857143 1.42857143,18.6461211 1.42857143,17.8571429 L1.42857143,16.0714286 C1.42857143,14.2962276 2.86765616,12.8571429 4.64285714,12.8571429 Z" id="矩形备份-2" fill="#B6C2CD"></path>
            </g>
        </g>
    </g>
</svg>
